storage/app/icons/phosphoricons/bold/calendar-dots-bold.svg

<svg xmlns="http://www.w3.org/2000/svg" fill="currentColor" viewBox="0 0 256 256"><path d="M208 28h-20v-4a12 12 0 0 0-24 0v4H92v-4a12 12 0 0 0-24 0v4H48a20 20 0 0 0-20 20v160a20 20 0 0 0 20 20h160a20 20 0 0 0 20-20V48a20 20 0 0 0-20-20M68 52a12 12 0 0 0 24 0h72a12 12 0 0 0 24 0h16v24H52V52ZM52 204V100h152v104Zm92-76a16 16 0 1 1-16-16 16 16 0 0 1 16 16m48 0a16 16 0 1 1-16-16 16 16 0 0 1 16 16m-96 48a16 16 0 1 1-16-16 16 16 0 0 1 16 16m48 0a16 16 0 1 1-16-16 16 16 0 0 1 16 16m48 0a16 16 0 1 1-16-16 16 16 0 0 1 16 16"/></svg>

<svg xmlns="http://www.w3.org/2000/svg" viewBox="0 0 256 256" fill="currentColor"><path d="M208,28H188V24a12,12,0,0,0-24,0v4H92V24a12,12,0,0,0-24,0v4H48A20,20,0,0,0,28,48V208a20,20,0,0,0,20,20H208a20,20,0,0,0,20-20V48A20,20,0,0,0,208,28ZM68,52a12,12,0,0,0,24,0h72a12,12,0,0,0,24,0h16V76H52V52ZM52,204V100H204V204Zm92-76a16,16,0,1,1-16-16A16,16,0,0,1,144,128Zm48,0a16,16,0,1,1-16-16A16,16,0,0,1,192,128ZM96,176a16,16,0,1,1-16-16A16,16,0,0,1,96,176Zm48,0a16,16,0,1,1-16-16A16,16,0,0,1,144,176Zm48,0a16,16,0,1,1-16-16A16,16,0,0,1,192,176Z"/></svg>
